Discord/SVGs/Settings/S12_1ActivityFeed.svg

<svg xmlns="http://www.w3.org/2000/svg" width="24" height="24" viewBox="0 0 24 24">
    <g fill="none" fill-rule="evenodd">
        <path d="M5.79335761,5 L18.2066424,5 C19.7805584,5 21.0868816,6.21634264 21.1990185,7.78625885 L21.8575059,17.0050826 C21.9307825,18.0309548 21.1585512,18.9219909 20.132679,18.9952675 C20.088523,18.9984215 20.0442685,19 20,19 C18.8245863,19 17.8000084,18.2000338 17.5149287,17.059715 L17,15 L7,15 L6.48507125,17.059715 C6.19999155,18.2000338 5.1754137,19 4,19 C2.97151413,19 2.13776159,18.1662475 2.13776159,17.1377616 C2.13776159,17.0934931 2.1393401,17.0492386 2.1424941,17.0050826 L2.80098151,7.78625885 C2.91311838,6.21634264 4.21944161,5 5.79335761,5 Z M14.5,10 C15.3284271,10 16,9.32842712 16,8.5 C16,7.67157288 15.3284271,7 14.5,7 C13.6715729,7 13,7.67157288 13,8.5 C13,9.32842712 13.6715729,10 14.5,10 Z M18.5,13 C19.3284271,13 20,12.3284271 20,11.5 C20,10.6715729 19.3284271,10 18.5,10 C17.6715729,10 17,10.6715729 17,11.5 C17,12.3284271 17.6715729,13 18.5,13 Z M6,9 L4,9 L4,11 L6,11 L6,13 L8,13 L8,11 L10,11 L10,9 L8,9 L8,7 L6,7 L6,9 Z"></path>
        <rect width="24" height="24"></rect>
    </g>
</svg>

<?xml version="1.0" encoding="utf-8"?>
<svg version="1.1" id="Layer_1" 
    xmlns="http://www.w3.org/2000/svg" 
    xmlns:xlink="http://www.w3.org/1999/xlink" x="0px" y="0px" viewBox="0 0 24 24" style="enable-background:new 0 0 24 24;" xml:space="preserve">
    <g>
        <path d="M5.8,5h12.4c1.6,0,2.9,1.2,3,2.8l0.7,9.2c0.1,1-0.7,1.9-1.7,2c0,0-0.1,0-0.1,0c-1.2,0-2.2-0.8-2.5-1.9L17,15H7l-0.5,2.1
		C6.2,18.2,5.2,19,4,19c-1,0-1.9-0.8-1.9-1.9c0,0,0-0.1,0-0.1l0.7-9.2C2.9,6.2,4.2,5,5.8,5z M14.5,10c0.8,0,1.5-0.7,1.5-1.5
		S15.3,7,14.5,7S13,7.7,13,8.5S13.7,10,14.5,10z M18.5,13c0.8,0,1.5-0.7,1.5-1.5S19.3,10,18.5,10S17,10.7,17,11.5S17.7,13,18.5,13z
		 M6,9H4v2h2v2h2v-2h2V9H8V7H6V9z"/>
    </g>
</svg>
